assets/efishery/centong-fill.svg

<svg width="24" height="25" viewBox="0 0 24 25" fill="none" xmlns="http://www.w3.org/2000/svg">
<path fill-rule="evenodd" clip-rule="evenodd" d="M3.37166 6.34523C2.85887 6.14011 2.2769 6.38953 2.07179 6.90231C1.86668 7.4151 2.11609 7.99707 2.62888 8.20218L12.6289 12.2022C12.6791 12.2223 12.7301 12.238 12.7813 12.2496L12.0805 14.6152C11.9174 15.1658 12.252 15.6116 12.4514 15.826C12.6905 16.0831 13.0236 16.3225 13.3903 16.5388C14.1339 16.9774 15.1707 17.4113 16.3273 17.7539C17.484 18.0965 18.5898 18.2973 19.4523 18.3344C19.8777 18.3528 20.2874 18.3335 20.628 18.248C20.9119 18.1768 21.4354 17.9852 21.5985 17.4345L22.9447 12.8897L22.9503 12.8697C23.0997 12.3283 22.7707 11.8906 22.5738 11.6788C22.3347 11.4217 22.0015 11.1823 21.6349 10.966C20.8913 10.5274 19.8545 10.0935 18.6978 9.75093C17.5412 9.40831 16.4354 9.20749 15.5728 9.17038C15.1475 9.15208 14.7377 9.17137 14.3972 9.25681C14.1132 9.32807 13.5898 9.51968 13.4267 10.0703L13.4229 10.0835L13.3481 10.3358L3.37166 6.34523ZM15.5084 10.669C15.4848 10.668 15.4618 10.6671 15.4392 10.6664C15.4585 10.6782 15.4784 10.69 15.4987 10.702C16.1089 11.062 17.0251 11.4526 18.0996 11.7708C19.1741 12.0891 20.1552 12.2605 20.8631 12.291C20.8866 12.292 20.9096 12.2929 20.9322 12.2935C20.9129 12.2818 20.893 12.27 20.8727 12.258C20.2625 11.898 19.3463 11.5074 18.2718 11.1892C17.1973 10.8709 16.2162 10.6995 15.5084 10.669ZM21.6709 12.2299C21.6814 12.2238 21.6888 12.2217 21.6888 12.2217C21.6888 12.2217 21.6843 12.225 21.6709 12.2299ZM14.8438 10.1941C14.8438 10.1941 14.8458 10.1995 14.8544 10.2109C14.8489 10.2003 14.8438 10.1941 14.8438 10.1941Z" fill="#1D1D1D"/>
</svg>

<svg viewBox="0 0 24 25" xmlns="http://www.w3.org/2000/svg">
  <path fill-rule="evenodd" clip-rule="evenodd" d="M3.372 6.345a1 1 0 1 0-.743 1.857l10 4c.05.02.101.036.152.048l-.7 2.365c-.164.55.171.997.37 1.211.24.257.573.497.94.713.743.438 1.78.872 2.936 1.215 1.157.342 2.263.543 3.125.58.426.019.835 0 1.176-.086.284-.071.807-.263.97-.814l1.347-4.544.005-.02c.15-.542-.18-.98-.376-1.191-.24-.257-.573-.497-.94-.713-.743-.439-1.78-.872-2.936-1.215-1.157-.343-2.263-.544-3.125-.58-.425-.019-.835 0-1.176.086-.284.071-.807.263-.97.813l-.004.014-.075.252-9.976-3.99zm12.136 4.324a6.095 6.095 0 0 0-.069-.003l.06.036c.61.36 1.526.75 2.6 1.069 1.075.318 2.056.49 2.764.52l.07.002a6.28 6.28 0 0 0-.06-.035c-.61-.36-1.527-.75-2.601-1.069-1.075-.318-2.056-.49-2.764-.52zm6.163 1.56c.01-.005.018-.007.018-.007l-.018.008zm-6.827-2.035.01.017-.01-.017z"/>
</svg>
